public/themes/EC/images/ico-cart.svg

<?xml version="1.0" encoding="UTF-8"?>
<svg width="27px" height="28px" viewBox="0 0 27 28" version="1.1" xmlns="http://www.w3.org/2000/svg" xmlns:xlink="http://www.w3.org/1999/xlink">
    <!-- Generator: Sketch 61 (89581) - https://sketch.com -->
    <title>Cart</title>
    <desc>Created with Sketch.</desc>
    <g id="Symbols" stroke="none" stroke-width="1" fill="none" fill-rule="evenodd">
        <g id="SidebarIcons" transform="translate(0.000000, -320.000000)" fill="#B9B9C0">
            <g id="7G">
                <g transform="translate(0.000000, 320.000000)">
                    <path d="M21.768,24.3540426 C22.764,24.3540426 23.574,25.1642553 23.574,26.1531915 C23.574,27.1480851 22.764,27.9582979 21.768,27.9582979 C20.772,27.9582979 19.968,27.1480851 19.968,26.1531915 C19.968,25.1642553 20.772,24.3540426 21.768,24.3540426 Z M10.896,24.3540426 C11.886,24.3540426 12.696,25.1642553 12.696,26.1531915 C12.696,27.1480851 11.886,27.9582979 10.896,27.9582979 C9.9,27.9582979 9.09,27.1480851 9.09,26.1531915 C9.09,25.1642553 9.9,24.3540426 10.896,24.3540426 Z M15.516,0.57787234 C16.014,0.57787234 16.416,0.977021277 16.416,1.47148936 L16.416,1.47148936 L16.416,4.17021277 L19.134,4.17021277 C19.632,4.17021277 20.034,4.5693617 20.034,5.06382979 C20.034,5.55829787 19.632,5.95744681 19.134,5.95744681 L19.134,5.95744681 L16.416,5.95744681 L16.416,8.65617021 C16.416,9.1506383 16.014,9.54978723 15.516,9.54978723 C15.018,9.54978723 14.616,9.1506383 14.616,8.65617021 L14.616,8.65617021 L14.616,5.95744681 L11.898,5.95744681 C11.4,5.95744681 10.998,5.55829787 10.998,5.06382979 C10.998,4.5693617 11.4,4.17021277 11.898,4.17021277 L11.898,4.17021277 L14.616,4.17021277 L14.616,1.47148936 C14.616,0.977021277 15.018,0.57787234 15.516,0.57787234 Z M22.95,20.6365957 L9.384,20.6365957 L7.386,13.0587234 L24.708,13.0765957 L22.95,20.6365957 Z M26.544,11.6289362 C26.37,11.4144681 26.112,11.2893617 25.836,11.2893617 L6.912,11.2714894 L6.336,9.07914894 C6.234,8.68595745 5.874,8.41191489 5.466,8.41191489 L1.224,8.41191489 C0.726,8.41191489 0.324,8.81106383 0.324,9.30553191 C0.324,9.8 0.726,10.1991489 1.224,10.1991489 L4.77,10.1991489 L5.346,12.3676596 C5.346,12.3855319 5.352,12.3974468 5.352,12.4093617 L7.818,21.7565957 C7.92,22.1497872 8.28,22.4238298 8.688,22.4238298 L23.67,22.4238298 C24.09,22.4238298 24.45,22.1378723 24.546,21.732766 L26.712,12.3855319 C26.778,12.1174468 26.712,11.8434043 26.544,11.6289362 L26.544,11.6289362 Z"></path>
                </g>
            </g>
        </g>
    </g>
</svg>

<svg width="27" height="28" viewBox="0 0 27 28" xmlns="http://www.w3.org/2000/svg"><title>Cart</title><path d="M21.768 24.354c.996 0 1.806.81 1.806 1.8a1.803 1.803 0 1 1-1.806-1.8zm-10.872 0c.99 0 1.8.81 1.8 1.8 0 .994-.81 1.804-1.8 1.804-.996 0-1.806-.81-1.806-1.805 0-.989.81-1.799 1.806-1.799zM15.516.578c.498 0 .9.399.9.893v2.7h2.718c.498 0 .9.398.9.893a.896.896 0 0 1-.9.893h-2.718v2.7a.896.896 0 0 1-.9.893c-.498 0-.9-.4-.9-.894V5.957h-2.718a.895.895 0 0 1-.9-.893c0-.495.402-.894.9-.894h2.718V1.471c0-.494.402-.893.9-.893zm7.434 20.059H9.384l-1.998-7.578 17.322.018-1.758 7.56zm3.594-9.008a.91.91 0 0 0-.708-.34l-18.924-.018-.576-2.192a.898.898 0 0 0-.87-.667H1.224c-.498 0-.9.4-.9.894s.402.893.9.893H4.77l.576 2.169c0 .018.006.03.006.041l2.466 9.348a.898.898 0 0 0 .87.667H23.67c.42 0 .78-.286.876-.691l2.166-9.347a.88.88 0 0 0-.168-.757z" fill="#B9B9C0" fill-rule="evenodd"/></svg>
